icons/disinfecting_wipes_fill.svg

<svg width="48" height="48" viewBox="0 0 48 48" fill="none" xmlns="http://www.w3.org/2000/svg">
<path d="M26.4233 8.88463C26.6358 8.37483 26.3947 7.78936 25.8849 7.57694C25.3751 7.36452 24.7896 7.6056 24.5772 8.1154L22.0772 14.1154C21.8648 14.6252 22.1058 15.2107 22.6156 15.4231C23.1254 15.6355 23.7109 15.3944 23.9233 14.8846L26.4233 8.88463Z" fill="black"/>
<path fill-rule="evenodd" clip-rule="evenodd" d="M31.9298 5.36837C32.1262 4.87276 31.8992 4.31024 31.4139 4.08965L31.4107 4.0882L31.4055 4.08584L31.389 4.07851C31.3754 4.07249 31.3565 4.06424 31.3327 4.05398C31.285 4.03347 31.2173 4.00492 31.1313 3.97021C30.9595 3.90084 30.7141 3.80655 30.41 3.70243C29.804 3.49489 28.9543 3.24467 27.9825 3.07714C26.0924 2.7513 23.5262 2.70226 21.4536 4.16172C19.2291 5.48539 17.5546 5.33083 16.4669 4.93527C15.8993 4.72888 15.4594 4.44426 15.1633 4.21254C15.016 4.09726 14.9069 3.99711 14.8383 3.9299C14.804 3.89639 14.7801 3.87134 14.7668 3.85706L14.755 3.84418C14.4463 3.48875 13.9309 3.39665 13.5179 3.62396C13.103 3.85235 12.9052 4.34051 13.0441 4.79333L16.2617 15.2813C15.4666 15.7681 15 16.3606 15 16.9999C15 18.6568 18.134 19.9999 22 19.9999C25.866 19.9999 29 18.6568 29 16.9999C29 16.4192 28.615 15.877 27.9483 15.4176L31.9298 5.36837ZM22.5814 5.81389C24.0028 4.79863 25.9184 4.75085 27.6428 5.04813C28.4502 5.18733 29.1685 5.39438 29.6977 5.57272L25.2097 16.9005H18.8505L15.7529 6.80373L15.7834 6.81491C17.4405 7.41748 19.7552 7.51336 22.5147 5.85764C22.5375 5.84395 22.5598 5.82936 22.5814 5.81389Z" fill="black"/>
<path fill-rule="evenodd" clip-rule="evenodd" d="M22 22.0001C24.7255 22.0001 27.1962 21.4549 29 20.5708V40C29 41.6569 25.866 43 22 43C18.134 43 15 41.6568 15 40V20.5708C16.8038 21.4549 19.2745 22.0001 22 22.0001ZM26 28C22.7953 28.6109 21.031 28.6293 18 28V34.1648C21.0938 35.0655 22.8815 35.1656 26 34.1648V28Z" fill="black"/>
</svg>

<svg
  xmlns="http://www.w3.org/2000/svg"
  width="24"
  height="24"
  viewBox="0 0 24 24"
  fill="none"
  stroke="currentColor"
  stroke-width="2"
  stroke-linecap="round"
  stroke-linejoin="round"
>
  <path d="M26.423 8.885a1 1 0 1 0-1.846-.77l-2.5 6a1 1 0 1 0 1.846.77z" />
  <path
    fill-rule="evenodd"
    d="M31.93 5.368a1 1 0 0 0-.516-1.278l-.003-.002-.006-.002-.016-.007a7 7 0 0 0-.258-.109 15.967 15.967 0 0 0-3.149-.893c-1.89-.326-4.456-.375-6.528 1.085-2.225 1.323-3.9 1.169-4.987.773a4.8 4.8 0 0 1-1.304-.722 4 4 0 0 1-.396-.356l-.012-.013a1 1 0 0 0-1.71.95l3.217 10.487C15.467 15.768 15 16.361 15 17c0 1.657 3.134 3 7 3s7-1.343 7-3c0-.58-.385-1.123-1.052-1.582zm-9.349.446c1.422-1.015 3.337-1.063 5.062-.766.807.14 1.526.346 2.055.525L25.21 16.9h-6.36L15.754 6.804l.03.01c1.658.603 3.972.7 6.732-.956z"
    clip-rule="evenodd"
  />
  <path
    fill-rule="evenodd"
    d="M22 22c2.726 0 5.196-.545 7-1.43V40c0 1.657-3.134 3-7 3s-7-1.343-7-3V20.57c1.804.885 4.275 1.43 7 1.43m4 6c-3.205.61-4.969.63-8 0v6.165c3.094.9 4.881 1 8 0z"
    clip-rule="evenodd"
  />
</svg>
